material/.icons/material/gamepad-square-outline.svg

<svg xmlns="http://www.w3.org/2000/svg" viewBox="0 0 24 24"><path d="M21 6H3a2 2 0 00-2 2v8a2 2 0 002 2h18a2 2 0 002-2V8a2 2 0 00-2-2m0 10H3V8h18M6 15h2v-2h2v-2H8V9H6v2H4v2h2m8.5-1a1.5 1.5 0 011.5 1.5 1.5 1.5 0 01-1.5 1.5 1.5 1.5 0 01-1.5-1.5 1.5 1.5 0 011.5-1.5m4-3a1.5 1.5 0 011.5 1.5 1.5 1.5 0 01-1.5 1.5 1.5 1.5 0 01-1.5-1.5A1.5 1.5 0 0118.5 9z"/></svg>

<?xml version="1.0" encoding="UTF-8"?><!DOCTYPE svg PUBLIC "-//W3C//DTD SVG 1.1//EN" "http://www.w3.org/Graphics/SVG/1.1/DTD/svg11.dtd"><svg xmlns="http://www.w3.org/2000/svg" xmlns:xlink="http://www.w3.org/1999/xlink" version="1.1" id="mdi-gamepad-square-outline" width="24" height="24" viewBox="0 0 24 24"><path d="M21,6H3A2,2 0 0,0 1,8V16A2,2 0 0,0 3,18H21A2,2 0 0,0 23,16V8A2,2 0 0,0 21,6M21,16H3V8H21M6,15H8V13H10V11H8V9H6V11H4V13H6M14.5,12A1.5,1.5 0 0,1 16,13.5A1.5,1.5 0 0,1 14.5,15A1.5,1.5 0 0,1 13,13.5A1.5,1.5 0 0,1 14.5,12M18.5,9A1.5,1.5 0 0,1 20,10.5A1.5,1.5 0 0,1 18.5,12A1.5,1.5 0 0,1 17,10.5A1.5,1.5 0 0,1 18.5,9Z" /></svg>
